X: 32409
T: Piper's Despair, The
R: reel
M: 4/4
K: Edorian
|:EFGA BAFA|~B3 c dBAF|D2 BD ADF/G/A|Bdce dBAF|
EFGA BAFA|B/c/d ec dBAF|DAFA dfaf|gfed Beed:|
|:efge bege|bege befe|d2 d/d/d aded|Bd d/d/d fgfd|
eBB/B/B bBgf|efga bgaf|defd gaaf|gfed Beed:|

